X: 24112
T: Longacre, The
R: reel
M: 4/4
K: Amixolydian
A2 eA fdec|Ae e2 dBGB|A2eA fdec|Ae e2 dBGB|
A2eA fdec|Ae e2 dBGB|A2eA fdec|Ae e2 dBGB||
A2 edde c2|edde c2 e2|A2 edde c2|edde c2 e2||

